app/assets/images/heroicons/mini/building-office.svg

<svg width="20" height="20" viewBox="0 0 20 20" fill="none" xmlns="http://www.w3.org/2000/svg">
<path fill-rule="evenodd" clip-rule="evenodd" d="M4 16.5V3.5H3.75C3.33579 3.5 3 3.16421 3 2.75C3 2.33579 3.33579 2 3.75 2H16.25C16.6642 2 17 2.33579 17 2.75C17 3.16421 16.6642 3.5 16.25 3.5H16V16.5H16.25C16.6642 16.5 17 16.8358 17 17.25C17 17.6642 16.6642 18 16.25 18H12.75C12.3358 18 12 17.6642 12 17.25V14.75C12 14.3358 11.6642 14 11.25 14H8.75C8.33579 14 8 14.3358 8 14.75V17.25C8 17.6642 7.66421 18 7.25 18H3.75C3.33579 18 3 17.6642 3 17.25C3 16.8358 3.33579 16.5 3.75 16.5H4ZM7 5.5C7 5.22386 7.22386 5 7.5 5H8.5C8.77614 5 9 5.22386 9 5.5V6.5C9 6.77614 8.77614 7 8.5 7H7.5C7.22386 7 7 6.77614 7 6.5V5.5ZM7.5 9C7.22386 9 7 9.22386 7 9.5V10.5C7 10.7761 7.22386 11 7.5 11H8.5C8.77614 11 9 10.7761 9 10.5V9.5C9 9.22386 8.77614 9 8.5 9H7.5ZM11 5.5C11 5.22386 11.2239 5 11.5 5H12.5C12.7761 5 13 5.22386 13 5.5V6.5C13 6.77614 12.7761 7 12.5 7H11.5C11.2239 7 11 6.77614 11 6.5V5.5ZM11.5 9C11.2239 9 11 9.22386 11 9.5V10.5C11 10.7761 11.2239 11 11.5 11H12.5C12.7761 11 13 10.7761 13 10.5V9.5C13 9.22386 12.7761 9 12.5 9H11.5Z" fill="#0F172A"/>
</svg>

<svg xmlns="http://www.w3.org/2000/svg" viewBox="0 0 20 20" fill="currentColor" aria-hidden="true" data-slot="icon">
  <path fill-rule="evenodd" d="M4 16.5v-13h-.25a.75.75 0 0 1 0-1.5h12.5a.75.75 0 0 1 0 1.5H16v13h.25a.75.75 0 0 1 0 1.5h-3.5a.75.75 0 0 1-.75-.75v-2.5a.75.75 0 0 0-.75-.75h-2.5a.75.75 0 0 0-.75.75v2.5a.75.75 0 0 1-.75.75h-3.5a.75.75 0 0 1 0-1.5H4Zm3-11a.5.5 0 0 1 .5-.5h1a.5.5 0 0 1 .5.5v1a.5.5 0 0 1-.5.5h-1a.5.5 0 0 1-.5-.5v-1ZM7.5 9a.5.5 0 0 0-.5.5v1a.5.5 0 0 0 .5.5h1a.5.5 0 0 0 .5-.5v-1a.5.5 0 0 0-.5-.5h-1ZM11 5.5a.5.5 0 0 1 .5-.5h1a.5.5 0 0 1 .5.5v1a.5.5 0 0 1-.5.5h-1a.5.5 0 0 1-.5-.5v-1Zm.5 3.5a.5.5 0 0 0-.5.5v1a.5.5 0 0 0 .5.5h1a.5.5 0 0 0 .5-.5v-1a.5.5 0 0 0-.5-.5h-1Z" clip-rule="evenodd"/>
</svg>
